X:1
T:Title
%%score { 1 | 2 }
L:1/8
M:6/8
K:C
V:1 treble nm="Grand Piano"
V:2 bass 
V:1
 z3 z2[Q:1/4=100] [EG] | [Ec]2 [Ec] [Ec][GB][FA] | [EG]3 [CE]2 [EG] | [EG][DF][CE] [B,D][CE][DF] | %4
[M:5/8] [CE]-[CE]- [CE]3 |[M:1/8] [EG] |[M:3/4] [Ec]2 [Ec][Ec] [GB][FA] | [EG]3 [G,CE]2 [CEG] | %8
 [CEG][DF] [CE][K:bass] [G,CE]2 [F,B,D] |[M:5/8] [E,C]-[E,C]- [E,C]3 |[M:1/8][K:treble] [EG] | %11
[M:3/4] [Ge][Fd] [Ec][Ac] [GB][FA] | [EG]3 [Ec]2 [Ec] | [Ge][Fd] [Ec][Gc] [GB][Gc] | %14
[M:5/8] d-d- d3 |[M:1/8] G |[M:3/4] [Ge][Ge] [Ge][Ge] [Gd][Gc] |[M:7/8] c3 A3 A | %18
[M:3/4] GF E [CE]2 [B,D] |[M:5/8] C-C- C3 |] %20
V:2
 z3 z2 [C,G,] | [C,G,]2 [C,G,] [C,G,][C,C][C,C] | [C,C]3 [C,G,]2 [C,C] | %3
 [C,C][C,G,][C,G,] [G,,G,][G,,G,][G,,G,] |[M:5/8] [C,G,]-[C,G,]- [C,G,]3 |[M:1/8] [C,G,] | %6
[M:3/4] [C,G,]2 [C,G,][C,G,] [C,C][C,C] | [C,C]3 C,2 C, | G,G, G, G,,2 G,, |[M:5/8] C,-C,- C,3 | %10
[M:1/8] [C,C] |[M:3/4] [C,C][C,G,] [C,G,][F,A,] [F,B,][F,C] | [C,C]3 [C,G,]2 [C,G,] | %13
 [C,C][C,G,] [C,G,][E,G,] [D,G,][C,C] |[M:5/8][K:treble] [G,B,G]-[G,B,G]- [G,B,G]3 | %15
[M:1/8][K:bass] [G,B,] |[M:3/4] [C,C][C,C] [C,C][C,C] [D,B,][E,C] | %17
[M:7/8] [F,A,F]3 [F,CF]3 [F,CF] |[M:3/4] [G,CE][G,D] [G,C] [G,,G,]2 [G,,F,] | %19
[M:5/8] [C,E,]-[C,E,]- [C,E,]3 |] %20

